X: 1
T: Reel Du Maringouin
M: 4/4
L: 1/8
R: reel
K: Dmaj
Ac |:&quot;D&quot;dfaf &quot;G&quot;gfed|&quot;A&quot;cdef edcB|AGFD &quot;Em&quot;E2EE|
E2ef &quot;A&quot;edcB|AFGA &quot;G&quot;BABc|d2cB &quot;A&quot;Acdf|edcd efg2|
&quot;Em&quot;fgag &quot;A7&quot;bgec|1 &quot;D&quot;d2d4c2:|2 &quot;D&quot;d2d4A2-||
|:&quot;D&quot;A2FA DAFA|DAFA A2Bc|d2cB AGFE|D2FD A2FA|
&quot;G&quot;GFED &quot;A&quot;CA,E2|A,ECE A,ECE|&quot;D&quot;D2FD A2FA|DAFA A2Bc|
ddcB A2&quot;G&quot;g2|&quot;Em&quot;fgag &quot;A7&quot;bgec|1 &quot;D&quot;d2d4A2-:|2 &quot;D&quot;d2d6||
